icon-themes/sifr_svg/cmd/lc_insertmultiindex.svg

<svg viewBox="0 0 24 24" xmlns="http://www.w3.org/2000/svg"><path d="m22 2v2h-20v-2zm-4.95 4.016a2 2 0 0 1 2 2 2 2 0 0 1 -2 2 2 2 0 0 1 -2-2 2 2 0 0 1 2-2zm-4.05.984v2h-7v-2zm-8 0v2h-3v-2zm12 5.03c1.1-.000001 2 .9 2 2-.000046 1.1-.9 2-2 2-1.1.000001-2-.9-2-2 .000046-1.1.9-2 2-2zm-4 .97v2h-7v-2zm-8 0v2h-3v-2zm12.050781 5.015625a2 2 0 0 1 2 2 2 2 0 0 1 -2 2 2 2 0 0 1 -2-2 2 2 0 0 1 2-2zm-4.050781.984375v2h-7v-2zm-8 0v2h-3v-2z" fill="#555753"/></svg>

<svg xmlns="http://www.w3.org/2000/svg" viewBox="0 0 24 24">
  <path
     style="fill:#555753"
     d="M 22,2 V 4 H 2 V 2 Z m -4.95,4.016 a 2,2 0 0 1 2,2 2,2 0 0 1 -2,2 2,2 0 0 1 -2,-2 2,2 0 0 1 2,-2 z M 13,7 V 9 H 6 V 7 Z M 5,7 V 9 H 2 V 7 Z m 12,5.03 c 1.1,-1e-6 2,0.9 2,2 -4.6e-5,1.1 -0.9,2 -2,2 -1.1,1e-6 -2,-0.9 -2,-2 4.6e-5,-1.1 0.9,-2 2,-2 z M 13,13 v 2 H 6 v -2 z m -8,0 v 2 H 2 v -2 z m 12.050781,5.015625 a 2,2 0 0 1 2,2 2,2 0 0 1 -2,2 2,2 0 0 1 -2,-2 2,2 0 0 1 2,-2 z M 13,19 v 2 H 6 v -2 z m -8,0 v 2 H 2 v -2 z"
     />
</svg>
